svg/business/suitcase_fill.svg

<?xml version="1.0" encoding="UTF-8"?>
<svg width="24px" height="24px" viewBox="0 0 24 24" version="1.1" xmlns="http://www.w3.org/2000/svg" xmlns:xlink="http://www.w3.org/1999/xlink">
    <title>suitcase_fill</title>
    <g id="Icon" stroke="none" stroke-width="1" fill="none" fill-rule="evenodd">
        <g id="Business" transform="translate(-528.000000, -432.000000)">
            <g id="suitcase_fill" transform="translate(528.000000, 432.000000)">
                <path d="M24,0 L24,24 L0,24 L0,0 L24,0 Z M12.5935,23.2578 L12.5819,23.2595 L12.5109,23.295 L12.4919,23.2987 L12.4767,23.295 L12.4057,23.2595 C12.3958,23.2564 12.387,23.259 12.3821,23.2649 L12.378,23.2758 L12.3609,23.7031 L12.3659,23.7235 L12.3769,23.7357 L12.4805,23.8097 L12.4953,23.8136 L12.5071,23.8097 L12.6107,23.7357 L12.6233,23.7197 L12.6267,23.7031 L12.6096,23.2758 C12.6076,23.2657 12.601,23.2593 12.5935,23.2578 Z M12.8584,23.1453 L12.8445,23.1473 L12.6598,23.2397 L12.6499,23.2499 L12.6472,23.2611 L12.6651,23.6906 L12.6699,23.7034 L12.6784,23.7105 L12.8793,23.8032 C12.8914,23.8069 12.9022,23.803 12.9078,23.7952 L12.9118,23.7812 L12.8777,23.1665 C12.8753,23.1546 12.8674,23.147 12.8584,23.1453 Z M12.143,23.1473 C12.1332,23.1424 12.1222,23.1453 12.1156,23.1526 L12.1099,23.1665 L12.0758,23.7812 C12.0751,23.7927 12.0828,23.8019 12.0926,23.8046 L12.1083,23.8032 L12.3092,23.7105 L12.3186,23.7024 L12.3225,23.6906 L12.3404,23.2611 L12.3372,23.2485 L12.3278,23.2397 L12.143,23.1473 Z" id="MingCute" fill-rule="nonzero"></path>
                <path d="M14,4 C15.6569,4 17,5.34315 17,7 L20,7 C21.1046,7 22,7.89543 22,9 L22,19 C22,20.1046 21.1046,21 20,21 L4,21 C2.89543,21 2,20.1046 2,19 L2,9 C2,7.89543 2.89543,7 4,7 L7,7 C7,5.34315 8.34315,4 10,4 L14,4 Z M8,8 C7.48716857,8 7.06449347,8.38604429 7.0067278,8.88337975 L7,9 L7,19 C7,19.5523 7.44772,20 8,20 C8.51283143,20 8.93550653,19.613973 8.9932722,19.1166239 L9,19 L9,9 C9,8.44772 8.55228,8 8,8 Z M16,8 C15.4477,8 15,8.44772 15,9 L15,19 C15,19.5523 15.4477,20 16,20 C16.5523,20 17,19.5523 17,19 L17,9 C17,8.44772 16.5523,8 16,8 Z M14,6 L10,6 C9.48716857,6 9.06449347,6.38604429 9.0067278,6.88337975 L9,7 L15,7 C15,6.48716857 14.613973,6.06449347 14.1166239,6.0067278 L14,6 Z" id="形状" fill="#09244B"></path>
            </g>
        </g>
    </g>
</svg>

<svg xmlns="http://www.w3.org/2000/svg" width="24" height="24"><g fill="none" fill-rule="evenodd"><path d="M24 0v24H0V0zM12.594 23.258l-.012.002-.071.035-.02.004-.014-.004-.071-.036c-.01-.003-.019 0-.024.006l-.004.01-.017.428.005.02.01.013.104.074.015.004.012-.004.104-.074.012-.016.004-.017-.017-.427c-.002-.01-.009-.017-.016-.018m.264-.113-.014.002-.184.093-.01.01-.003.011.018.43.005.012.008.008.201.092c.012.004.023 0 .029-.008l.004-.014-.034-.614c-.003-.012-.01-.02-.02-.022m-.715.002a.023.023 0 0 0-.027.006l-.006.014-.034.614c0 .012.007.02.017.024l.015-.002.201-.093.01-.008.003-.011.018-.43-.003-.012-.01-.01z"/><path fill="#09244B" d="M14 4a3 3 0 0 1 3 3h3a2 2 0 0 1 2 2v10a2 2 0 0 1-2 2H4a2 2 0 0 1-2-2V9a2 2 0 0 1 2-2h3a3 3 0 0 1 3-3zM8 8a1 1 0 0 0-.993.883L7 9v10a1 1 0 0 0 1.993.117L9 19V9a1 1 0 0 0-1-1m8 0a1 1 0 0 0-1 1v10a1 1 0 1 0 2 0V9a1 1 0 0 0-1-1m-2-2h-4a1 1 0 0 0-.993.883L9 7h6a1 1 0 0 0-.883-.993z"/></g></svg>
